Simply-Purple-Circles/scalable/apps/distributor-logo-opensuse.svg

<svg xmlns="http://www.w3.org/2000/svg" width="48" height="48" viewBox="0 0 12.7 12.7"><path d="M6.34.07a6.29 6.29 0 0 0-6.29 6.3 6.29 6.29 0 0 0 6.3 6.28 6.29 6.29 0 0 0 6.28-6.29A6.29 6.29 0 0 0 6.34.07zm-.02.94a5.4 5.4 0 1 1-4.04 8.98c.4-.32 1.09-.24 1.92-.14.4.04.86.1 1.34.1a9.8 9.8 0 0 0 3.62-.61c.56-.25.93-.41 1.15-.62a.68.68 0 0 0 .17-.3l.03-.08c.04-.09.1-.3.11-.4.02-.05.02-.1-.01-.13l-.13.02c-.38.23-1.34.67-2.24.7-1.12.02-3.37-1.13-3.6-1.25l-.03-.03-.46-1.1C5.77 7.2 7.1 7.8 8.14 7.9c1.14.1 2.04-.53 2.42-.8l.15-.1.03-.03c-.07-.4-.67-2.35-1.12-2.82-.12-.13-.22-.25-.43-.37-1.63-.95-5.52-1.53-5.7-1.56l-.03.01v.03l-.03.9A15 15 0 0 0 2.3 2.8 4.82 4.82 0 0 1 6.32 1zm1.43 2.86h.09A1.67 1.67 0 0 1 8.9 6.74c-.32.3-.74.47-1.19.45a1.67 1.67 0 0 1-1.6-1.72 1.65 1.65 0 0 1 1.63-1.6zm-.04.49a1.15 1.15 0 0 0-1.08 1.12 1.16 1.16 0 0 0 1.94.89 1.16 1.16 0 0 0-.87-2zm.3.58c.29 0 .52.15.52.34 0 .2-.23.35-.52.35-.28 0-.51-.16-.51-.35 0-.19.23-.34.51-.34z" fill="#963996"/></svg>

<?xml version="1.0" encoding="UTF-8" standalone="no"?>
<svg
   xmlns:dc="http://purl.org/dc/elements/1.1/"
   xmlns:cc="http://creativecommons.org/ns#"
   xmlns:rdf="http://www.w3.org/1999/02/22-rdf-syntax-ns#"
   xmlns:svg="http://www.w3.org/2000/svg"
   xmlns="http://www.w3.org/2000/svg"
   xmlns:sodipodi="http://sodipodi.sourceforge.net/DTD/sodipodi-0.dtd"
   xmlns:inkscape="http://www.inkscape.org/namespaces/inkscape"
   width="48"
   height="48"
   viewBox="0 0 12.7 12.7"
   version="1.1"
   id="svg4"
   sodipodi:docname="distributor-logo-opensuse.svg"
   inkscape:version="0.92.4 (5da689c313, 2019-01-14)">
  <metadata
     id="metadata10">
    <rdf:RDF>
      <cc:Work
         rdf:about="">
        <dc:format>image/svg+xml</dc:format>
        <dc:type
           rdf:resource="http://purl.org/dc/dcmitype/StillImage" />
        <dc:title></dc:title>
      </cc:Work>
    </rdf:RDF>
  </metadata>
  <defs
     id="defs8" />
  <sodipodi:namedview
     pagecolor="#ffffff"
     bordercolor="#666666"
     borderopacity="1"
     objecttolerance="10"
     gridtolerance="10"
     guidetolerance="10"
     inkscape:pageopacity="0"
     inkscape:pageshadow="2"
     inkscape:window-width="1087"
     inkscape:window-height="480"
     id="namedview6"
     showgrid="false"
     inkscape:zoom="4.9166667"
     inkscape:cx="2.1355932"
     inkscape:cy="24"
     inkscape:window-x="0"
     inkscape:window-y="25"
     inkscape:window-maximized="0"
     inkscape:current-layer="svg4" />
  <path
     d="M 6.34,0.07 A 6.29,6.29 0 0 0 0.05,6.37 6.29,6.29 0 0 0 6.35,12.65 6.29,6.29 0 0 0 12.63,6.36 6.29,6.29 0 0 0 6.34,0.07 Z M 6.32,1.01 A 5.4,5.4 0 1 1 2.28,9.99 C 2.68,9.67 3.37,9.75 4.2,9.85 4.6,9.89 5.06,9.95 5.54,9.95 A 9.8,9.8 0 0 0 9.16,9.34 C 9.72,9.09 10.09,8.93 10.31,8.72 a 0.68,0.68 0 0 0 0.17,-0.3 l 0.03,-0.08 c 0.04,-0.09 0.1,-0.3 0.11,-0.4 0.02,-0.05 0.02,-0.1 -0.01,-0.13 L 10.48,7.83 C 10.1,8.06 9.14,8.5 8.24,8.53 7.12,8.55 4.87,7.4 4.64,7.28 L 4.61,7.25 4.15,6.15 C 5.77,7.2 7.1,7.8 8.14,7.9 9.28,8 10.18,7.37 10.56,7.1 L 10.71,7 10.74,6.97 C 10.67,6.57 10.07,4.62 9.62,4.15 9.5,4.02 9.4,3.9 9.19,3.78 7.56,2.83 3.67,2.25 3.49,2.22 L 3.46,2.23 V 2.26 L 3.43,3.16 A 15,15 0 0 0 2.3,2.8 4.82,4.82 0 0 1 6.32,1 Z M 7.75,3.87 H 7.84 A 1.67,1.67 0 0 1 8.9,6.74 C 8.58,7.04 8.16,7.21 7.71,7.19 A 1.67,1.67 0 0 1 6.11,5.47 1.65,1.65 0 0 1 7.74,3.87 Z M 7.71,4.36 A 1.15,1.15 0 0 0 6.63,5.48 1.16,1.16 0 0 0 8.57,6.37 1.16,1.16 0 0 0 7.7,4.37 Z m 0.3,0.58 c 0.29,0 0.52,0.15 0.52,0.34 0,0.2 -0.23,0.35 -0.52,0.35 C 7.73,5.63 7.5,5.47 7.5,5.28 7.5,5.09 7.73,4.94 8.01,4.94 Z"
     id="path2"
     inkscape:connector-curvature="0"
     style="fill:#963996" />
</svg>
